X: 1451
T: The Limerick Lasses
M:C|
L:1/8
B:O'Neill's 1451
Z:"Transcribed by Bob Safranek, rjs@gsp.org"
K:D
dBAF D2 (EF) | GFGA BEEc | dBAF D2 (EF) | GBAG FDDc           |
dBAF D2 (EF) | GFGA BEEc | dBAF D2 (EF) | GBAG FABc           ||
dcde f2 (ed) | cdef gBBc | dfga b2 (ag) | faeg fddc           |
dcde fded    | cdef gfga | bBbB b2 (ag) | faeg fd "    Fine"d2||
AdBd AdBd    | AdBd ceec | AdBd AdBd    | efge fddB           |
AdBd AdBd    | Adfd ceef | gfec dcBA    | Bdce fd "D.C."d2    |]


